src/assets/icons/swap_cubes_colored.svg

<svg width="40" height="40" data-token-name="swap_cubes_colored" viewBox="0 0 40 40" fill="none" xmlns="http://www.w3.org/2000/svg">
<rect width="40" height="40" rx="20" fill="#E986FF"/>
<path d="M17.3333 23.5557L19.111 25.3334L17.3333 27.1112" fill="none" stroke="white" stroke-width="1.5" stroke-linecap="round" stroke-linejoin="round"/>
<path d="M12.8889 20.8887V23.5553C12.8889 24.5376 13.6845 25.3331 14.6667 25.3331H19.1111M22.6667 16.4442L20.8889 14.6664L22.6667 12.8887" fill="none" stroke="white" stroke-width="1.5" stroke-linecap="round" stroke-linejoin="round"/>
<path d="M27.1111 19.1111V16.4444C27.1111 15.4622 26.3156 14.6667 25.3333 14.6667H20.8889M16.4444 18.2222H13.7778C12.7956 18.2222 12 17.4267 12 16.4444V13.7778C12 12.7956 12.7956 12 13.7778 12H16.4444C17.4267 12 18.2222 12.7956 18.2222 13.7778V16.4444C18.2222 17.4267 17.4267 18.2222 16.4444 18.2222ZM26.2222 28H23.5556C22.5733 28 21.7778 27.2044 21.7778 26.2222V23.5556C21.7778 22.5733 22.5733 21.7778 23.5556 21.7778H26.2222C27.2044 21.7778 28 22.5733 28 23.5556V26.2222C28 27.2044 27.2044 28 26.2222 28Z" fill="none" stroke="white" stroke-width="1.5" stroke-linecap="round" stroke-linejoin="round"/>
</svg>

<svg xmlns="http://www.w3.org/2000/svg" data-token-name="swap_cubes_colored" width="40" height="40" fill="none"><rect width="40" height="40" fill="#E986FF" rx="20"/><path stroke="#fff" stroke-linecap="round" stroke-linejoin="round" fill="none" stroke-width="1.5" d="m17.333 23.556 1.778 1.777-1.778 1.778"/><path stroke="#fff" stroke-linecap="round" stroke-linejoin="round" fill="none" stroke-width="1.5" d="M12.889 20.889v2.666c0 .983.796 1.778 1.778 1.778h4.444m3.556-8.889-1.778-1.778 1.778-1.777"/><path stroke="#fff" stroke-linecap="round" stroke-linejoin="round" fill="none" stroke-width="1.5" d="M27.111 19.111v-2.667c0-.982-.795-1.777-1.778-1.777H20.89m-4.445 3.555h-2.666A1.777 1.777 0 0 1 12 16.444v-2.666c0-.982.796-1.778 1.778-1.778h2.666c.983 0 1.778.796 1.778 1.778v2.666c0 .983-.795 1.778-1.778 1.778ZM26.222 28h-2.666a1.777 1.777 0 0 1-1.778-1.778v-2.666c0-.983.795-1.778 1.778-1.778h2.666c.982 0 1.778.795 1.778 1.778v2.666c0 .982-.796 1.778-1.778 1.778Z"/></svg>
